; generated by PrusaSlicer 2.7.1+win64 on 2024-09-30 at 00:39:55 UTC


;
;

;
;

;
;

;
;
; 

; external perimeters extrusion width = 0.45mm
; perimeters extrusion width = 0.45mm
; infill extrusion width = 0.45mm
; solid infill extrusion width = 0.45mm
; top infill extrusion width = 0.40mm
; first layer extrusion width = 0.42mm

M73 P0 R20
M201 X2500 Y2500 Z400 E5000 ; sets maximum accelerations, mm/sec^2
M203 X180 Y180 Z12 E80 ; sets maximum feedrates, mm / sec
M204 P2000 R1250 T2500 ; sets acceleration (P, T) and retract acceleration (R), mm/sec^2
M205 X8.00 Y8.00 Z2.00 E10.00 ; sets the jerk limits, mm/sec
M205 S0 T0 ; sets the minimum extruding and travel feed rate, mm/sec

M486 S0
M486 Aartemis_template.stl
M486 S-1

;TYPE:Custom
M862.3 P "MINI" ; printer model check
G90 ; use absolute coordinates
M83 ; extruder relative mode
M104 S170 ; set extruder temp for bed leveling
M140 S85 ; set bed temp
M109 R170 ; wait for bed leveling temp
M190 S85 ; wait for bed temp
M204 T1250 ; set travel acceleration
G28 ; home all without mesh bed level
G29 ; mesh bed leveling 
M204 T2500 ; restore travel acceleration
M104 S230 ; set extruder temp
G92 E0
G1 Y-2 X179 F2400
G1 Z3 F720
M109 S230 ; wait for extruder temp

; intro line
G1 X170 F1000
G1 Z0.2 F720
G1 X110 E8 F900
G1 X40 E10 F700
G92 E0

M221 S95 ; set flow
G21 ; set units to millimeters
G90 ; use absolute coordinates
M83 ; use relative distances for extrusion
M900 K0.2 ; Filament gcode

M107
;LAYER_CHANGE
;Z:0.2
;HEIGHT:0.2
;BEFORE_LAYER_CHANGE
G92 E0.0
;0.2


G1 E-3.2 F2700
M73 P1 R19
G1 Z.2 F720
;AFTER_LAYER_CHANGE
;0.2
G1 X64.545 Y53.708 F9000
G1 Z.2 F720
G1 E3.2 F1500
M204 P600
;TYPE:Skirt/Brim
;WIDTH:0.42
G1 F1200
G1 X65.591 Y52.832 E.04278
G1 X66.375 Y52.643 E.02529
G1 X108.623 Y49.899 E1.32745
G1 X109.614 Y49.997 E.03122
G3 X115.835 Y57.112 I-1.301 J7.414 E.32037
G1 X115.845 Y62.284 E.16216
G1 X113.101 Y127.835 E2.05711
G1 X112.656 Y129.124 E.04276
G1 X111.574 Y129.956 E.0428
G1 X110.726 Y130.112 E.02703
G1 X66.53 Y130.112 E1.38573
G1 X65.223 Y129.721 E.04277
M73 P2 R19
G1 X64.347 Y128.675 E.04278
G1 X64.153 Y127.735 E.03009
G1 X64.153 Y55.015 E2.28008
G1 X64.528 Y53.765 E.04092
M204 P1000
M486 S0
G1 E-2.24 F2700
;WIPE_START
G1 F7200
G1 X64.545 Y53.708 E-.02119
G1 X65.591 Y52.832 E-.48606
G1 X66.375 Y52.643 E-.2873
G1 X66.838 Y52.613 E-.16545
;WIPE_END
G1 Z.4 F720
G1 X79.413 Y74.553 F9000
G1 Z.2 F720
G1 E3.2 F1500
M204 P600
;TYPE:Perimeter
;WIDTH:0.419999
G1 F1200
G3 X84.651 Y75.06 I2.536 J1.112 E.21776
G3 X84.655 Y77.272 I-8.57 J1.122 E.06955
G3 X79.371 Y77.7 I-2.707 J-.589 E.22163
G1 X79.227 Y77.201 E.01628
G3 X79.18 Y75.644 I11.076 J-1.113 E.04888
G3 X79.389 Y74.608 I2.769 J.021 E.03334
M204 P1000
G1 X79.752 Y74.725 F9000
M204 P600
;TYPE:External perimeter
G1 F1200
G3 X84.297 Y75.206 I2.199 J.935 E.19091
G3 X84.339 Y76.703 I-11.656 J1.077 E.04699
G3 X79.732 Y77.59 I-2.393 J-.02 E.20585
G1 X79.599 Y77.14 E.01471
G3 X79.629 Y75.094 I7.741 J-.909 E.06434
G3 X79.729 Y74.78 I2.322 J.566 E.01034
M204 P1000
G1 E-2.24 F2700
;WIPE_START
G1 F7200
G1 X79.752 Y74.725 E-.02124
G3 X81.793 Y73.276 I2.199 J.935 E-.93876
;WIPE_END
G1 Z.4 F720
G1 X94.521 Y77.163 F9000
G1 Z.2 F720
G1 E3.2 F1500
M204 P600
;TYPE:Perimeter
G1 F1200
G3 X92.876 Y78.283 I-2.277 J-1.577 E.06382
G3 X91.594 Y78.357 I-1.022 J-6.492 E.04033
G1 X88.703 Y78.357 E.09065
G1 X88.138 Y78.297 E.01781
G3 X85.983 Y75.169 I.592 J-2.714 E.13114
G3 X88.703 Y72.821 I2.765 J.454 E.1223
G1 X92.262 Y72.821 E.11159
G3 X93.835 Y73.319 I-.079 J2.977 E.05242
G3 X94.554 Y77.113 I-1.591 J2.267 E.13398
M204 P1000
G1 X94.223 Y76.928 F9000
M204 P600
;TYPE:External perimeter
G1 F1200
G3 X93.149 Y77.805 I-2 J-1.351 E.0441
G3 X92.112 Y77.98 I-1.01 J-2.833 E.03314
G1 X88.703 Y77.98 E.10689
G1 X88.229 Y77.931 E.01494
G3 X86.358 Y75.206 I.504 J-2.351 E.11427
G3 X88.703 Y73.198 I2.374 J.399 E.10508
G1 X92.262 Y73.198 E.11159
G3 X94.643 Y75.607 I-.028 J2.408 E.11778
G3 X94.386 Y76.648 I-2.75 J-.126 E.03384
G3 X94.256 Y76.878 I-2.163 J-1.071 E.00829
M204 P1000
G1 E-2.24 F2700
;WIPE_START
G1 F7200
G1 X94.223 Y76.928 E-.02134
G3 X93.149 Y77.805 I-1.999 J-1.352 E-.50103
G3 X92.112 Y77.98 I-1.011 J-2.834 E-.37659
G1 X91.941 Y77.98 E-.06104
;WIPE_END
G1 Z.4 F720
G1 X93.571 Y83.622 F9000
G1 Z.2 F720
G1 E3.2 F1500
M204 P600
;TYPE:Perimeter
G1 F1200
G3 X93.693 Y84.021 I-2.58 J1.004 E.01309
G3 X93.759 Y85.141 I-5.922 J.909 E.03523
G1 X93.759 Y88.164 E.09478
G3 X88.225 Y88.219 I-2.768 J-.02 E.26995
G1 X88.222 Y84.604 E.11335
G3 X93.549 Y83.566 I2.769 J.022 E.23797
M204 P1000
G1 X93.204 Y83.745 F9000
M204 P600
;TYPE:External perimeter
G1 F1200
G3 X93.354 Y84.312 I-2.635 J1.002 E.01842
G3 X93.382 Y88.164 I-95.263 J2.616 E.12079
G1 X93.332 Y88.637 E.01491
G3 X92.868 Y89.62 I-2.752 J-.701 E.03429
G3 X88.6 Y88.182 I-1.881 J-1.47 E.18453
G1 X88.599 Y84.604 E.11219
G3 X92.989 Y83.302 I2.395 J.022 E.19123
M73 P3 R19
G3 X93.182 Y83.689 I-2.42 J1.445 E.01357
M204 P1000
G1 E-2.24 F2700
;WIPE_START
G1 F7200
G1 X93.204 Y83.745 E-.02143
G3 X93.354 Y84.312 I-2.635 J1 E-.20932
G3 X93.388 Y86.359 I-95.263 J2.613 E-.72925
;WIPE_END
G1 Z.4 F720
G1 X78.324 Y102.241 F9000
G1 Z.2 F720
G1 E3.2 F1500
M204 P600
;TYPE:Perimeter
G1 F1200
G3 X77.454 Y102.599 I-1.476 J-2.346 E.02964
G3 X76.206 Y102.665 I-.976 J-6.647 E.03924
G1 X71.811 Y102.665 E.1378
G1 X71.228 Y102.599 E.0184
G3 X69.245 Y100.904 I.642 J-2.758 E.085
G3 X69.315 Y98.735 I2.654 J-1 E.06982
G3 X71.337 Y97.173 I2.544 J1.202 E.08316
G1 X72.162 Y97.129 E.0259
G1 X76.871 Y97.129 E.14765
G3 X78.242 Y97.508 I-.052 J2.856 E.04507
G3 X79.527 Y99.185 I-1.472 J2.457 E.06784
G3 X78.374 Y102.208 I-2.679 J.71 E.10833
M204 P1000
G1 X78.135 Y101.91 F9000
M204 P600
;TYPE:External perimeter
G1 F1200
G3 X76.871 Y102.288 I-1.3 J-2.045 E.04189
G1 X71.811 Y102.288 E.15865
G3 X71.437 Y97.542 I.016 J-2.389 E.22238
G1 X72.162 Y97.506 E.02276
G1 X76.871 Y97.506 E.14765
G3 X78.064 Y97.84 I-.043 J2.45 E.03927
G1 X78.538 Y98.193 E.01853
G3 X79.062 Y100.829 I-1.721 J1.712 E.0893
G3 X78.428 Y101.691 I-2.492 J-1.169 E.03377
G3 X78.185 Y101.877 I-1.593 J-1.826 E.0096
M204 P1000
G1 E-2.24 F2700
;WIPE_START
G1 F7200
G1 X78.135 Y101.91 E-.02134
G3 X76.871 Y102.288 I-1.3 J-2.045 E-.47601
G1 X75.572 Y102.288 E-.46265
;WIPE_END
G1 Z.4 F720
G1 X75.166 Y106.522 F9000
G1 Z.2 F720
G1 E3.2 F1500
M204 P600
;TYPE:Perimeter
G1 F1200
G3 X75.22 Y106.499 I.82 J1.894 E.00184
G3 X76.206 Y106.394 I.758 J2.434 E.03129
G3 X77.078 Y106.735 I-.362 J2.211 E.02957
G3 X77.865 Y107.913 I-1.344 J1.75 E.04522
G3 X77.548 Y109.504 I-2.016 J.426 E.05228
G3 X76.852 Y110.108 I-1.86 J-1.442 E.02908
G3 X75.873 Y110.34 I-1.012 J-2.083 E.0318
G3 X73.97 Y108.022 I.069 J-1.996 E.10636
G1 X74.115 Y107.544 E.01566
G3 X75.111 Y106.546 I1.871 J.872 E.04512
M204 P1000
G1 X75.331 Y106.864 F9000
M204 P600
;TYPE:External perimeter
G1 F1200
G3 X75.651 Y106.771 I.61 J1.507 E.01047
G1 X76.206 Y106.771 E.0174
G3 X77.106 Y107.261 I-.309 J1.639 E.03266
G3 X77.511 Y108.059 I-1.622 J1.326 E.02828
G3 X77.054 Y109.507 I-1.624 J.283 E.04948
G3 X76.224 Y109.938 I-1.37 J-1.622 E.02957
G3 X75.295 Y109.836 I-.237 J-2.114 E.02954
G3 X74.346 Y108.059 I.653 J-1.492 E.06811
G3 X75.276 Y106.888 I1.595 J.312 E.04872
M204 P1000
G1 E-2.24 F2700
;WIPE_START
G1 F7200
G1 X75.331 Y106.864 E-.02138
G3 X75.651 Y106.771 I.611 J1.507 E-.11893
G1 X76.206 Y106.771 E-.19772
G3 X77.106 Y107.261 I-.309 J1.639 E-.37107
G3 X77.453 Y107.87 I-1.622 J1.325 E-.2509
;WIPE_END
G1 Z.4 F720
G1 X75.169 Y121.769 F9000
G1 Z.2 F720
G1 E3.2 F1500
M204 P600
;TYPE:Perimeter
G1 F1200
G3 X76.739 Y121.782 I.769 J1.958 E.05045
G3 X77.803 Y122.951 I-.855 J1.848 E.0509
G3 X74.871 Y121.913 I-1.876 J.641 E.27854
G3 X75.113 Y121.791 I1.067 J1.814 E.0085
M204 P1000
G1 X75.33 Y122.102 F9000
M204 P600
;TYPE:External perimeter
G1 F1200
G3 X75.651 Y122.011 I.597 J1.492 E.01048
G1 X76.206 Y122.011 E.0174
G1 X76.562 Y122.114 E.01162
G3 X77.443 Y123.06 I-.664 J1.501 E.04166
G3 X75.275 Y122.126 I-1.516 J.534 E.23337
M204 P1000
G1 E-2.24 F2700
;WIPE_START
G1 F7200
G1 X75.33 Y122.102 E-.02138
G3 X75.651 Y122.011 I.596 J1.492 E-.11908
G1 X76.206 Y122.011 E-.19772
G1 X76.562 Y122.114 E-.13203
G3 X77.443 Y123.06 I-.663 J1.501 E-.47335
G3 X77.458 Y123.104 I-1.515 J.534 E-.01644
;WIPE_END
G1 Z.4 F720
G1 X87.866 Y114.141 F9000
G1 Z.2 F720
G1 E3.2 F1500
M204 P600
;TYPE:Perimeter
G1 F1200
G3 X87.92 Y114.119 I.765 J1.831 E.00183
G3 X88.906 Y114.014 I.758 J2.433 E.03129
G3 X90.3 Y114.899 I-.297 J2.008 E.05332
G3 X87.811 Y114.165 I-1.669 J1.073 E.30211
M204 P1000
G1 X88.03 Y114.483 F9000
M204 P600
;TYPE:External perimeter
G1 F1200
G3 X88.351 Y114.391 I.602 J1.491 E.01049
G1 X88.906 Y114.391 E.0174
G3 X89.974 Y115.09 I-.304 J1.631 E.04108
G3 X87.975 Y114.507 I-1.342 J.884 E.24568
M204 P1000
G1 E-2.24 F2700
;WIPE_START
G1 F7200
G1 X88.03 Y114.483 E-.02138
G3 X88.351 Y114.391 I.601 J1.491 E-.11918
G1 X88.906 Y114.391 E-.19772
G3 X89.974 Y115.09 I-.304 J1.631 E-.46676
G3 X90.161 Y115.481 I-1.343 J.884 E-.15496
;WIPE_END
G1 Z.4 F720
G1 X100.236 Y110.012 F9000
G1 Z.2 F720
G1 E3.2 F1500
M204 P600
;TYPE:Perimeter
G1 F1200
G3 X100.179 Y109.975 I1.094 J-1.728 E.00213
G3 X99.377 Y107.977 I1.191 J-1.639 E.07117
G3 X100.62 Y106.499 I2.002 J.423 E.06306
G3 X102.105 Y106.525 I.706 J2.15 E.04745
G3 X102.385 Y110.037 I-.79 J1.83 E.13547
G3 X100.287 Y110.044 I-1.055 J-1.753 E.06907
M204 P1000
G1 X100.42 Y109.681 F9000
M204 P600
;TYPE:External perimeter
G1 F1200
G3 X99.748 Y108.044 I.93 J-1.338 E.05865
G1 X99.848 Y107.722 E.01057
G3 X100.729 Y106.86 I1.63 J.786 E.03944
G3 X101.606 Y106.771 I.667 J2.204 E.02781
G3 X102.677 Y107.476 I-.368 J1.727 E.04114
G3 X101.624 Y109.938 I-1.359 J.875 E.09893
G3 X100.695 Y109.836 I-.237 J-2.114 E.02954
G3 X100.47 Y109.715 I.655 J-1.493 E.00802
M204 P1000
G1 E-2.24 F2700
;WIPE_START
G1 F7200
G1 X100.42 Y109.681 E-.02154
G3 X99.748 Y108.044 I.93 J-1.338 E-.66639
G1 X99.848 Y107.722 E-.12012
G3 X100.077 Y107.363 I1.63 J.786 E-.15195
;WIPE_END
G1 Z.4 F720
G1 X102.131 Y121.788 F9000
G1 Z.2 F720
G1 E3.2 F1500
M204 P600
;TYPE:Perimeter
G1 F1200
G3 X102.478 Y121.975 I-.895 J2.077 E.01237
G3 X99.708 Y122.446 I-1.15 J1.616 E.29289
G3 X100.939 Y121.645 I1.749 J1.342 E.04695
G1 X101.606 Y121.634 E.02092
G3 X102.075 Y121.765 I-.37 J2.231 E.0153
M204 P1000
G1 X101.96 Y122.117 F9000
M204 P600
;TYPE:External perimeter
G1 F1200
G3 X100 Y122.685 I-.634 J1.477 E.24736
G3 X101.014 Y122.015 I1.447 J1.088 E.03886
G1 X101.606 Y122.011 E.01856
G3 X101.905 Y122.095 I-.28 J1.583 E.00975
M204 P1000
G1 E-2.24 F2700
;WIPE_START
G1 F7200
G1 X101.96 Y122.117 E-.0211
G3 X102.756 Y124.328 I-.634 J1.477 E-.9389
;WIPE_END
G1 Z.4 F720
G1 X107.857 Y64.992 F9000
G1 Z.2 F720
M73 P4 R19
G1 E3.2 F1500
M204 P600
;TYPE:Perimeter
G1 F1200
G3 X105.621 Y62.294 I.539 J-2.722 E.11891
G1 X105.621 Y57.235 E.15862
G3 X106.12 Y55.663 I2.963 J.075 E.0524
G3 X109.881 Y54.915 I2.276 J1.615 E.13255
G3 X111.158 Y57.421 I-1.572 J2.379 E.09222
G1 X111.158 Y62.294 E.15279
G1 X111.092 Y62.878 E.01843
G3 X109.881 Y64.615 I-2.799 J-.662 E.06799
G3 X107.916 Y65.003 I-1.485 J-2.345 E.06425
M204 P1000
G1 X107.907 Y64.617 F9000
M204 P600
;TYPE:External perimeter
G1 F1200
G3 X106.686 Y63.961 I.481 J-2.361 E.04408
G3 X105.998 Y62.195 I1.805 J-1.719 E.06096
G1 X105.998 Y57.235 E.15552
G3 X110.606 Y56.348 I2.394 J.02 E.20597
G3 X110.781 Y57.421 I-2.892 J1.022 E.03427
G1 X110.781 Y62.294 E.15279
G3 X109.703 Y64.282 I-2.446 J-.04 E.07371
G1 X109.288 Y64.5 E.0147
G3 X108.216 Y64.66 I-.934 J-2.593 E.03421
G3 X107.966 Y64.628 I.172 J-2.404 E.00791
M204 P1000
G1 E-2.24 F2700
;WIPE_START
G1 F7200
G1 X107.907 Y64.617 E-.02138
G3 X106.686 Y63.961 I.482 J-2.362 E-.50086
G3 X106.087 Y62.902 I1.805 J-1.719 E-.43776
;WIPE_END
G1 Z.4 F720
G1 X110.114 Y66.152 F9000
G1 Z.2 F720
G1 E3.2 F1500
M204 P600
;TYPE:Perimeter
G1 F1200
G1 X110.011 Y66.26 E.00468
G1 X109.939 Y66.535 E.00891
G1 X109.939 Y70.133 E.11281
;WIDTH:0.465434
G1 X109.917 Y70.215 E.00298
;WIDTH:0.510869
G1 X109.894 Y70.298 E.00335
;WIDTH:0.556304
G1 X109.871 Y70.381 E.00368
;WIDTH:0.601739
G1 X109.848 Y70.463 E.00396
;WIDTH:0.647174
G1 X109.826 Y70.546 E.00431
G1 X109.794 Y70.486 E.00342
;WIDTH:0.60881
G1 X109.763 Y70.426 E.00318
;WIDTH:0.570446
G1 X109.681 Y70.278 E.00742
;WIDTH:0.532835
G1 X109.6 Y70.13 E.00687
;WIDTH:0.495223
G1 X109.518 Y69.981 E.0064
;WIDTH:0.457611
G1 X109.436 Y69.833 E.00583
;WIDTH:0.419999
G2 X108.032 Y68.929 I-1.704 J1.106 E.05396
G2 X107.046 Y69.034 I-.227 J2.538 E.03129
G2 X105.942 Y70.079 I.767 J1.917 E.04881
;WIDTH:0.469934
G1 X105.844 Y70.316 E.00911
;WIDTH:0.519868
G1 X105.747 Y70.552 E.01012
G1 X105.722 Y70.352 E.00799
;WIDTH:0.469934
G1 X105.697 Y70.151 E.00719
;WIDTH:0.419999
G1 X105.697 Y66.011 E.12981
G2 X103.522 Y63.319 I-2.792 J.031 E.11703
G2 X102.401 Y63.303 I-.613 J3.729 E.03528
G2 X100.16 Y66.011 I.567 J2.75 E.11909
G1 X100.16 Y70.328 E.13536
G2 X100.226 Y71.653 I7.194 J.308 E.04165
G2 X102.443 Y73.784 I2.739 J-.631 E.10202
G2 X105.631 Y71.653 I.472 J-2.746 E.13261
;WIDTH:0.463738
G1 X105.686 Y71.392 E.00933
;WIDTH:0.507477
G1 X105.741 Y71.13 E.01034
G1 X105.771 Y71.234 E.00418
;WIDTH:0.482173
G1 X105.8 Y71.337 E.00391
;WIDTH:0.456869
G1 X106.073 Y71.947 E.023
;WIDTH:0.419999
G2 X109.119 Y72.333 I1.684 J-1.074 E.10981
G1 X109.436 Y71.947 E.01566
;WIDTH:0.466833
G1 X109.513 Y71.815 E.00539
;WIDTH:0.513667
G1 X109.591 Y71.682 E.00604
;WIDTH:0.560501
G1 X109.668 Y71.55 E.00658
;WIDTH:0.607335
G1 X109.745 Y71.418 E.00717
;WIDTH:0.654168
G1 X109.822 Y71.285 E.00781
G1 X109.846 Y71.387 E.00533
;WIDTH:0.607335
G1 X109.869 Y71.489 E.00491
;WIDTH:0.560501
G1 X109.892 Y71.591 E.0045
;WIDTH:0.513667
G1 X109.916 Y71.692 E.00406
;WIDTH:0.466833
G1 X109.939 Y71.794 E.00369
;WIDTH:0.419999
G1 X109.939 Y76.596 E.15056
G2 X109.336 Y75.899 I-2.046 J1.164 E.02909
G2 X108.464 Y75.559 I-1.25 J1.91 E.02956
G2 X107.478 Y75.664 I-.209 J2.709 E.03127
G2 X106.228 Y77.852 I.736 J1.871 E.08539
G2 X108.131 Y79.505 I1.992 J-.371 E.0853
G2 X109.63 Y78.884 I.024 J-2.061 E.05229
G1 X109.939 Y78.443 E.01688
G1 X109.939 Y98.454 E.62743
;WIDTH:0.465434
G1 X109.917 Y98.536 E.00298
;WIDTH:0.510869
G1 X109.894 Y98.619 E.00335
;WIDTH:0.556304
G1 X109.871 Y98.702 E.00368
;WIDTH:0.601739
G1 X109.848 Y98.784 E.00396
;WIDTH:0.647174
G1 X109.826 Y98.867 E.00431
G1 X109.794 Y98.807 E.00342
;WIDTH:0.60881
G1 X109.763 Y98.747 E.00318
;WIDTH:0.570445
G1 X109.681 Y98.599 E.00742
;WIDTH:0.532834
G1 X109.6 Y98.451 E.00687
;WIDTH:0.495222
G1 X109.518 Y98.302 E.0064
;WIDTH:0.457611
G1 X109.436 Y98.154 E.00583
;WIDTH:0.419999
G2 X108.032 Y97.25 I-1.704 J1.106 E.05396
G2 X107.046 Y97.355 I-.227 J2.538 E.03129
G2 X106.311 Y100.576 I.723 J1.859 E.12206
G2 X107.173 Y101.105 I1.631 J-1.688 E.03196
G2 X108.088 Y101.169 I.618 J-2.267 E.02895
G2 X109.436 Y100.268 I-.378 J-2.025 E.05225
;WIDTH:0.466833
G1 X109.513 Y100.136 E.00539
;WIDTH:0.513667
G1 X109.591 Y100.003 E.00604
;WIDTH:0.560501
G1 X109.668 Y99.871 E.00658
;WIDTH:0.607335
G1 X109.745 Y99.739 E.00717
;WIDTH:0.654168
G1 X109.822 Y99.606 E.00781
G1 X109.846 Y99.708 E.00533
;WIDTH:0.607335
G1 X109.869 Y99.81 E.00491
;WIDTH:0.560501
G1 X109.892 Y99.912 E.0045
;WIDTH:0.513667
G1 X109.916 Y100.013 E.00406
;WIDTH:0.466833
G1 X109.939 Y100.115 E.00369
;WIDTH:0.419999
G1 X109.939 Y126.948 E.84133
G1 X67.317 Y126.948 E1.33638
G1 X67.317 Y88.945 E1.19156
G1 X67.303 Y88.689 E.00804
M73 P5 R19
;WIDTH:0.390671
G1 X67.288 Y88.433 E.00742
;WIDTH:0.408114
G1 X67.312 Y88.366 E.00216
;WIDTH:0.454885
G1 X67.335 Y88.3 E.00239
;WIDTH:0.501656
G1 X67.358 Y88.234 E.00267
;WIDTH:0.548428
G1 X67.382 Y88.168 E.00295
;WIDTH:0.595199
G1 X67.405 Y88.101 E.00325
;WIDTH:0.64197
G1 X67.428 Y88.035 E.00348
G1 X67.459 Y88.101 E.00363
;WIDTH:0.593301
G1 X67.489 Y88.168 E.00336
;WIDTH:0.544632
G1 X67.519 Y88.234 E.00302
;WIDTH:0.495963
G1 X67.55 Y88.301 E.00278
;WIDTH:0.447294
G1 X67.58 Y88.367 E.00244
;WIDTH:0.415177
G1 X67.674 Y88.743 E.012
;WIDTH:0.419999
G2 X71.148 Y89.184 I1.856 J-.716 E.13427
G2 X71.209 Y86.978 I-1.691 J-1.151 E.07309
G2 X70.312 Y86.209 I-1.798 J1.189 E.03753
G2 X68.819 Y86.179 I-.788 J2.116 E.04772
